X:1
T: Irongray
T: 8 x 32S 3C (Hugh Foss / Galloway Album)
P: Laoidh an t'Slanuighear ("Hymn to the Saviour")
C: from Simon Fraser Colln.
C: arr. T. Traub 2-12-2004
K: G
M: 4/4
L: 1/8
D/E/F| "G"G>A B>A G>E D<F|"G"Ga g>dBd|"B"B>AB^d "Em"e3 B/c/|"G"de/f/ g>a "C"g>f ef/g/|
"G"dBAG "C"E2 E/D/E/F/|"G"G>DEG "C"e2 g2|"G"dB "D"A2 "G"G2||G/A/B|"C"c<de>^c "G"dDDe|"G"d<B "D"A2 "G"G3 d/e/f|
"G"g>ab>a g>dBd|"B"B>AB^d "Em"e2 g/f/g/a/|"G"b>ag>f "C"g>f ef/g/|"G"dBAG "C"E3 "D"D/E/F|"G"G>DEG "C"e2 g2|"D"d>B A2 "G"G2 |]
